Origami/32x32/apps/gtkpod.svg

<svg width="32" height="32" version="1" xmlns="http://www.w3.org/2000/svg">
 <rect transform="scale(-1,1)" x="-27" y="3" width="22" height="28" rx="1.375" ry="1.4" style="opacity:.2"/>
 <rect transform="scale(-1,1)" x="-27" y="2" width="22" height="28" rx="1.375" ry="1.4" style="fill:#8e8e8e"/>
 <rect x="6" y="3" width="20" height="12" rx="0" ry="0" stroke-miterlimit="3.429" style="fill-rule:evenodd;opacity:.5"/>
 <circle cx="16" cy="24" r="6" style="opacity:.2"/>
 <circle cx="16" cy="23" r="6" style="fill:#ffffff"/>
 <circle cx="16" cy="23" r="3" style="fill:#8e8e8e"/>
 <path d="m6.375 2c-0.76175 0-1.375 0.6247906-1.375 1.4003906v1c0-0.7756 0.61325-1.4003906 1.375-1.4003906h19.25c0.76175 0 1.375 0.6247906 1.375 1.4003906v-1c0-0.7756-0.61325-1.4003906-1.375-1.4003906h-19.25z" style="fill:#ffffff;opacity:.1"/>
</svg>

<svg xmlns="http://www.w3.org/2000/svg" width="32" height="32" version="1">
 <rect style="opacity:0.2" width="22" height="28" x="-27" y="3" rx="1.375" ry="1.4" transform="scale(-1,1)"/>
 <rect style="fill:#8e8e8e" width="22" height="28" x="-27" y="2" rx="1.375" ry="1.4" transform="scale(-1,1)"/>
 <rect stroke-miterlimit="3.429" style="opacity:0.5;fill-rule:evenodd" width="20" height="12" x="6" y="3" rx="0" ry="0"/>
 <circle style="opacity:0.2" cx="16" cy="24" r="6"/>
 <circle style="fill:#ffffff" cx="16" cy="23" r="6"/>
 <circle style="fill:#8e8e8e" cx="16" cy="23" r="3"/>
 <path style="fill:#ffffff;opacity:0.1" d="M 6.375 2 C 5.61325 2 5 2.6247906 5 3.4003906 L 5 4.4003906 C 5 3.6247906 5.61325 3 6.375 3 L 25.625 3 C 26.38675 3 27 3.6247906 27 4.4003906 L 27 3.4003906 C 27 2.6247906 26.38675 2 25.625 2 L 6.375 2 z"/>
</svg>
